X: 3
T: Cronin's, Sort Of...
M: 4/4
L: 1/8
R: reel
K: Gmaj
~G3A Bd~d2|gabg aged|egdg egdB|cedB cAAB|
~G3A Bd~d2|gabg aged|egdg egdB|1 dega bgg2:|2 dega bggf||
|:~g3e dB~B2|dBAd BAAd|egdg egdB|dega baaf|
~g3e dB~B2|dBAd BAAd|egdg egdB|1 cBAc BGGf:|2 cBAc BGGD||
